X:198
M:C|
L:1/8
K:C
dBdB cAGF|G2 G2 G2:|
|:ef|gfed c_BAG|A2 F2 F2 fg|agfe dcBA|B2 G2 G2 ef|gege fafa|gege fafa|
geaf edcB|c2 c2 c2:|

